packages/dnb-eufemia/assets/icons/card_out_medium.svg

<svg width="24" height="24" viewBox="0 0 24 24" fill="none" xmlns="http://www.w3.org/2000/svg">
<path d="M4.5 7.25C4.08579 7.25 3.75 7.58579 3.75 8C3.75 8.41421 4.08579 8.75 4.5 8.75V7.25ZM8.25 8.75C8.66421 8.75 9 8.41421 9 8C9 7.58579 8.66421 7.25 8.25 7.25V8.75ZM4.5 15.25C4.08579 15.25 3.75 15.5858 3.75 16C3.75 16.4142 4.08579 16.75 4.5 16.75V15.25ZM12 16.75C12.4142 16.75 12.75 16.4142 12.75 16C12.75 15.5858 12.4142 15.25 12 15.25V16.75ZM22.5 8C22.5 8.41421 22.8358 8.75 23.25 8.75C23.6642 8.75 24 8.41421 24 8H22.5ZM24 17C24 16.5858 23.6642 16.25 23.25 16.25C22.8358 16.25 22.5 16.5858 22.5 17H24ZM15.5 11.75C15.0858 11.75 14.75 12.0858 14.75 12.5C14.75 12.9142 15.0858 13.25 15.5 13.25V11.75ZM19.9697 14.4697C19.6768 14.7626 19.6768 15.2374 19.9697 15.5303C20.2626 15.8232 20.7374 15.8232 21.0303 15.5303L19.9697 14.4697ZM23 12.5L23.5303 13.0303C23.8232 12.7374 23.8232 12.2626 23.5303 11.9697L23 12.5ZM21.0303 9.46967C20.7374 9.17678 20.2626 9.17678 19.9697 9.46967C19.6768 9.76256 19.6768 10.2374 19.9697 10.5303L21.0303 9.46967ZM2.75 5.25H21.25V3.75H2.75V5.25ZM21.25 18.75H2.75V20.25H21.25V18.75ZM1.5 17.5V6.5H0V17.5H1.5ZM4.5 8.75H8.25V7.25H4.5V8.75ZM4.5 16.75H12V15.25H4.5V16.75ZM22.5 6.5V8H24V6.5H22.5ZM22.5 17V17.5H24V17H22.5ZM2.75 18.75C2.05964 18.75 1.5 18.1904 1.5 17.5H0C0 19.0188 1.23122 20.25 2.75 20.25V18.75ZM21.25 20.25C22.7688 20.25 24 19.0188 24 17.5H22.5C22.5 18.1904 21.9404 18.75 21.25 18.75V20.25ZM21.25 5.25C21.9404 5.25 22.5 5.80964 22.5 6.5H24C24 4.98122 22.7688 3.75 21.25 3.75V5.25ZM2.75 3.75C1.23122 3.75 0 4.98122 0 6.5H1.5C1.5 5.80964 2.05964 5.25 2.75 5.25V3.75ZM21.0303 15.5303L23.5303 13.0303L22.4697 11.9697L19.9697 14.4697L21.0303 15.5303ZM23.5303 11.9697L21.0303 9.46967L19.9697 10.5303L22.4697 13.0303L23.5303 11.9697ZM15.5 13.25H23V11.75H15.5V13.25Z" fill="black"/>
</svg>

<svg width="24" height="24" viewBox="0 0 24 24" fill="none" xmlns="http://www.w3.org/2000/svg"><path d="M4.5 7.25a.75.75 0 0 0 0 1.5v-1.5Zm3.75 1.5a.75.75 0 0 0 0-1.5v1.5Zm-3.75 6.5a.75.75 0 0 0 0 1.5v-1.5Zm7.5 1.5a.75.75 0 0 0 0-1.5v1.5ZM22.5 8A.75.75 0 0 0 24 8h-1.5Zm1.5 9a.75.75 0 0 0-1.5 0H24Zm-8.5-5.25a.75.75 0 0 0 0 1.5v-1.5Zm4.47 2.72a.75.75 0 1 0 1.06 1.06l-1.06-1.06ZM23 12.5l.53.53a.75.75 0 0 0 0-1.06l-.53.53Zm-1.97-3.03a.75.75 0 1 0-1.06 1.06l1.06-1.06ZM2.75 5.25h18.5v-1.5H2.75v1.5Zm18.5 13.5H2.75v1.5h18.5v-1.5ZM1.5 17.5v-11H0v11h1.5Zm3-8.75h3.75v-1.5H4.5v1.5Zm0 8H12v-1.5H4.5v1.5Zm18-10.25V8H24V6.5h-1.5Zm0 10.5v.5H24V17h-1.5ZM2.75 18.75c-.69 0-1.25-.56-1.25-1.25H0a2.75 2.75 0 0 0 2.75 2.75v-1.5Zm18.5 1.5A2.75 2.75 0 0 0 24 17.5h-1.5c0 .69-.56 1.25-1.25 1.25v1.5Zm0-15c.69 0 1.25.56 1.25 1.25H24a2.75 2.75 0 0 0-2.75-2.75v1.5Zm-18.5-1.5A2.75 2.75 0 0 0 0 6.5h1.5c0-.69.56-1.25 1.25-1.25v-1.5Zm18.28 11.78 2.5-2.5-1.06-1.06-2.5 2.5 1.06 1.06Zm2.5-3.56-2.5-2.5-1.06 1.06 2.5 2.5 1.06-1.06Zm-8.03 1.28H23v-1.5h-7.5v1.5Z" fill="#000"/></svg>
